X: 12
T:Bourre
M:3/4
L:1/4
Q:1/4=240
R:Bourre  3 temps
O:France
A:Massif Central
K:G
D2|GFG2A2|G2F2G2|ABc2B2|A4D2|GFG2A2|G2F2G2|ABA2F2|G4:|
Bc|d2B2A2|G2F2G2|ABc2B2|A4Bc|d2B2A2|G2F2G2|ABA2F2|G4:|
W:
W: From "Falaleiro" http://home.t-online.de/home/pheld/homepage.htm
